X: 20627
T: John Roy Stewart
R: strathspey
M: 4/4
K: Fmajor
|:c<AA>G F>GA<d|c<FA>F c>[Fc]A<f|c>BA>G F>GA>F|D<dd>c d2d<f:|
c>df>g a>fg<a|f>c d/c/B/A/ f<cc>[Bf]|c>df<g a<fg<a|c>ag<f d2df|
c>df<g a<fg<a|f>c d/c/B/A/ f<c (3cfg|a>fg>ef<de>c A<dd>cd2df|

